X: 2
T: Cape Breton's Own
R: jig
M: 6/8
L: 1/8
K: Gmaj
|:d3 c3|Bdg bgd|cdf agf|gba gfe|
d3 c3|Bdg bgd|cdf agf|1 gdB G3:|2 gdB g3 f||
|:e2 f gfe|bef gfe|f^dB BcB|Bc’b agf|
e2 f gfe|bef gfe|1 ^dcB c’ba|ge^d e3:|2 bc’b agf|g/f/ba gfe||

